packages/components/icons/assets/SpeedmeterOutline.svg

<svg viewBox="0 0 24 24" xmlns="http://www.w3.org/2000/svg" data-title="SpeedmeterOutline" fill="currentColor" stroke="none">
  <path fill-rule="evenodd" clip-rule="evenodd" d="M2 12C2 6.47715 6.47715 2 12 2C17.5228 2 22 6.47715 22 12C22 17.5228 17.5228 22 12 22C6.47715 22 2 17.5228 2 12ZM12 4.08696C7.62975 4.08696 4.08696 7.62975 4.08696 12C4.08696 12.8372 4.21696 13.644 4.45789 14.4013H11.4096L15.2394 8.0183C15.5359 7.52413 16.1769 7.36389 16.6711 7.66039C17.1652 7.95689 17.3255 8.59786 17.029 9.09203L13.8434 14.4013H19.5421C19.783 13.644 19.913 12.8372 19.913 12C19.913 7.62975 16.3703 4.08696 12 4.08696ZM18.5179 16.4883H12.0164C12.0051 16.4885 11.9938 16.4885 11.9824 16.4883H5.4821C6.90946 18.5572 9.29639 19.913 12 19.913C14.7036 19.913 17.0905 18.5572 18.5179 16.4883Z"/>
</svg>

<svg viewBox="0 0 24 24" xmlns="http://www.w3.org/2000/svg" data-title="SpeedmeterOutline" fill="currentColor" stroke="none">
  <path fill-rule="evenodd" d="m2,12C2,6.48,6.48,2,12,2s10,4.48,10,10-4.48,10-10,10S2,17.52,2,12Zm10-7.91c-4.37,0-7.91,3.54-7.91,7.91,0,.84.13,1.64.37,2.4h6.95l3.83-6.38c.3-.49.94-.65,1.43-.36.49.3.65.94.36,1.43l-3.19,5.31h5.7c.24-.76.37-1.56.37-2.4,0-4.37-3.54-7.91-7.91-7.91Zm6.52,12.4h-6.5s-.02,0-.03,0h-6.5c1.43,2.07,3.81,3.42,6.52,3.42s5.09-1.36,6.52-3.42Z"/>
</svg>
